X:1
T:Title
%%score 1 { 2 | 3 }
L:1/8
Q:1/4=108
M:4/4
K:G
V:1 treble nm="Grand Piano, Soprano"
V:2 bass nm="Choir Pad, Revive Us"
V:3 bass 
V:1
 d4 B2 G2 | E6 E2 | EFGA B2 [GB]2 | [FA]2 [EG]2 [Gc]2 [Ge]2 | [Gd]6 [Gd]2 | %5
w: By~Gilbert~Dobbs * *|||||
 [Gd]3 [GB] [FA][DG][DF][CE] | D6 [B,D]2 | [EG]3 [EA] [DG]2 [DF]2 |[M:2/4] [DG]4- | [DG]2 z D | %10
w: |||||
 G2 D>G | B2 G>[GB] | [Gd]2 [Ge]>[Gd] | [GB]3 [GB] | [Gd]2 [Gc]>[GB] | [FA]3 [FA] | %16
w: ||||||
 [Fc]2 [GB]>[FA] | [DG]3 D | G2 D>G | B2 G>[GB] | [Gd]2 [Ge]>[Gd] | [GB]3 [GB] | [Bd]2 [Ac]>[GB] | %23
w: |||||||
 [FA]<[FA]- [FA]>[FA] | [Fc]<[GB]- [GB]>[FA] | G4- | G4 |] %27
w: ||||
V:2
 D4 B,2 G,2 | E,6 E,2 | E,F,G,A, B,2[K:treble] D2 | C2 B,2 E2 C2 | B,6 B,2 | B,3 D DB,A,A, | %6
 B,6 G,2 | B,3 C B,2 C2 |[M:2/4] B,4- | B,2 z D, | G,2 D,>G, | B,2 G,>[K:treble]D | B,2 C>B, | %13
 D3 D | B,2 E>D | D3 C | A,2 D>C | B,3 D, | G,2 D,>G, | B,2 G,>B, | B,2[K:treble] C>B, | D3 D | %22
 D2 D>D | D<D- D>C | A,<D- D>C | B,4- | B,4 |] %27
V:3
 z8 | z8 | z4 z2 G,2 | D,2 E,2 C,2 C,2 | G,6 G,2 | G,3 G,, A,,B,,D,F, | G,6 C,2 | E,3 A,, D,2 D,2 | %8
[M:2/4] [G,,G,]4- | [G,,G,]2 z2 | z4 | z2 z z/ G,/ | G,2 G,>G, | G,3 G, | G,2 G,>G, | D,3 D, | %16
 D,2 D,>D, | .G,4 | z4 | z2 z z/ G,/ | G,2 G,>G, | G,3 G, | D,2 D,>D, | D,<D,- D,>D, | %24
 D,<D,- D,>D, | G,4- | G,4 |] %27

